logos/adobe-indesign.svg

<?xml version="1.0" encoding="UTF-8"?>
<svg width="256px" height="250px" viewBox="0 0 256 250" version="1.1" xmlns="http://www.w3.org/2000/svg" preserveAspectRatio="xMidYMid">
    <title>Adobe InDesign</title>
    <g>
        <rect fill="#49021F" x="0" y="0" width="256" height="249.6" rx="42.5"></rect>
        <path d="M92.9687467,65.2973973 L92.9687467,174.691403 C92.9687467,175.837237 92.4536427,176.408854 91.4234347,176.408854 L70.6432,176.408854 C69.7260018,176.408854 69.2681884,175.83637 69.269752,174.691403 L69.269752,65.2973973 C69.269752,64.3822969 69.784864,63.9243093 70.815072,63.9234347 L91.5948053,63.9234347 C91.9731449,63.8696815 92.3547306,63.9970406 92.6249416,64.2672558 C92.8613762,64.5036941 92.9884353,64.8254019 92.9804914,65.1555919 L92.9687467,65.2973973 Z M155.555387,178.1148 L154.449483,178.126304 C146.544964,178.24652 138.712984,176.603848 131.522912,173.317707 C124.824929,170.217721 119.225804,165.157459 115.466144,158.806251 C111.667361,152.497058 109.7217,144.633397 109.630449,135.215269 L109.627083,134.505995 C109.562469,126.624106 111.576471,118.86442 115.466144,112.008853 C119.367291,105.209621 125.056011,99.6138924 131.909514,95.8255872 L132.467744,95.5224 C139.908363,91.4008 148.895687,89.3400356 159.429717,89.3401067 L159.652073,89.3414493 L159.652073,89.3414493 L160.145369,89.3521907 L160.145369,89.3521907 L160.703444,89.3736733 L160.703444,89.3736733 L161.326297,89.4058973 L161.326297,89.4058973 L162.01327,89.4493747 L162.01327,89.4493747 L162.764313,89.5036413 L162.764313,89.5036413 L164.460534,89.6425427 C164.612671,89.6558049 164.767505,89.6694889 164.925035,89.6835947 L164.925035,55.852128 C164.925035,55.052384 165.268779,54.6499947 165.955765,54.6499947 L187.593781,54.6499947 C187.877564,54.609431 188.163887,54.7048189 188.366643,54.9074719 C188.569399,55.1101249 188.664932,55.3963992 188.624512,55.6802027 L188.624512,157.174731 C188.624512,159.122905 188.710276,161.240949 188.881803,163.528864 L189.044124,165.743385 L189.044124,165.743385 L189.187353,167.804149 L189.187353,167.804149 L189.311488,169.711157 L189.311488,169.711157 C189.354558,170.441322 188.945356,171.123152 188.280757,171.428608 C182.698455,173.75678 176.884067,175.483792 170.935968,176.580427 C165.859862,177.517357 160.715271,178.030477 155.555387,178.1148 L155.555387,178.1148 Z M164.925003,156.831253 L164.925003,109.948181 C163.996798,109.696727 163.048967,109.524321 162.091669,109.432811 C160.921782,109.31521 159.746616,109.257929 158.570837,109.261195 C154.403489,109.219732 150.285036,110.161067 146.549504,112.008853 C142.911232,113.817424 139.804722,116.53943 137.533877,119.908587 C135.185959,123.343253 134.012348,127.865564 134.013045,133.47552 C133.929416,137.219134 134.540796,140.945792 135.816171,144.466453 C136.854056,147.303213 138.4947,149.881195 140.625024,152.02272 C142.664314,153.993043 145.133344,155.462819 147.837525,156.316213 C150.693911,157.241078 153.679444,157.704792 156.681792,157.690588 C158.283876,157.690588 159.772231,157.632704 161.146859,157.518293 C162.243929,157.435608 163.330989,157.254618 164.394987,156.977697 L164.925003,156.831253 Z" fill="#FF3366"></path>
    </g>
</svg>

<?xml version="1.0" encoding="UTF-8"?>
<svg width="256" height="250" version="1.1" xmlns="http://www.w3.org/2000/svg" preserveAspectRatio="xMidYMid">
	<rect fill="#49021F" x="0" y="0" width="256" height="249.6" rx="42.5"/>
	<path d="M92.969 65.297v109.394c0 1.146-.515 1.718-1.546 1.718h-20.78c-.917 0-1.375-.573-1.373-1.718V65.297c0-.915.515-1.373 1.545-1.374h20.78a1.215 1.215 0 0 1 1.385 1.233l-.011.141Zm62.586 112.818-1.106.011a53.208 53.208 0 0 1-22.926-4.808 36.45 36.45 0 0 1-16.057-14.512c-3.799-6.309-5.744-14.173-5.836-23.59l-.003-.71a44.844 44.844 0 0 1 5.84-22.497 42.866 42.866 0 0 1 16.443-16.183l.558-.304c7.44-4.121 16.428-6.182 26.962-6.182l.222.001.493.011.558.022.623.032.687.043.751.055 1.697.139.464.04v-33.83c0-.8.344-1.203 1.03-1.203h21.639a.91.91 0 0 1 1.03 1.03v101.495a85.4 85.4 0 0 0 .258 6.354l.162 2.214.143 2.061.124 1.907a1.775 1.775 0 0 1-1.03 1.718 85.184 85.184 0 0 1-17.345 5.151 93.12 93.12 0 0 1-15.38 1.535Zm9.37-21.284v-46.883a17.035 17.035 0 0 0-2.833-.515 34.25 34.25 0 0 0-3.521-.172c-4.168-.041-8.286.9-12.021 2.748a23.472 23.472 0 0 0-9.016 7.9c-2.348 3.434-3.522 7.957-3.521 13.567a30.284 30.284 0 0 0 1.803 10.99 20.894 20.894 0 0 0 4.809 7.557 18.311 18.311 0 0 0 7.213 4.293 28.277 28.277 0 0 0 8.844 1.375c1.602 0 3.09-.058 4.465-.173a18.38 18.38 0 0 0 3.248-.54l.53-.147Z" fill="#F36"/>
</svg>
